kora/panel/16/keepassxc-locked.svg

<svg xmlns="http://www.w3.org/2000/svg" width="16" height="16" viewBox="0 0 16 16">
 <defs>
  <style id="current-color-scheme" type="text/css">
   .ColorScheme-Text { color:#dfdfdf; } .ColorScheme-Highlight { color:#4285f4; } .ColorScheme-NeutralText { color:#ff9800; } .ColorScheme-PositiveText { color:#4caf50; } .ColorScheme-NegativeText { color:#f44336; }
  </style>
 </defs>
 <path style="fill:currentColor" class="ColorScheme-Text" d="m7.5 1a4.5 4.5 0 0 0-4.5 4.5 4.5 4.5 0 0 0 3 4.2363v4.2637l1.5 2 1.5-2 1-0.5-1-0.699v-0.75l1-1-1-1v-0.3147a4.5 4.5 0 0 0 3-4.2363 4.5 4.5 0 0 0-4.5-4.5zm0 1a1.5 1.5 0 0 1 1.5 1.5 1.5 1.5 0 0 1-1.5 1.5 1.5 1.5 0 0 1-1.5-1.5 1.5 1.5 0 0 1 1.5-1.5zm-0.5 8h1v4h-1z"/>
  <path style="fill:currentColor" class="ColorScheme-Text" d="m13 8.9999995c-1.108 0-2 .911-2 2.0310005v.969h-1v4h6v-4h-1v-.969c0-1.1200005-.892-2.0310005-2-2.0310005zm0 1c.554 0 1 .4420005 1 1.0000005v1h-2v-1c0-.558.446-1.0000005 1-1.0000005z"/>
</svg>

<svg xmlns="http://www.w3.org/2000/svg" width="16" height="16" version="1.1">
 <defs>
  <style id="current-color-scheme" type="text/css">
   .ColorScheme-Text { color:#dfdfdf; } .ColorScheme-Highlight { color:#4285f4; }
  </style>
 </defs>
 <path style="fill:currentColor" class="ColorScheme-Text" d="M 7.5,1 A 4.5,4.5 0 0 0 3,5.5 4.5,4.5 0 0 0 6,9.7363 V 14 L 7.5,16 9,14 10,13.5 9,12.801 V 12.051 L 10,11.051 9,10.051 V 9.7363 A 4.5,4.5 0 0 0 12,5.5 4.5,4.5 0 0 0 7.5,1 Z M 7.5,2 A 1.5,1.5 0 0 1 9,3.5 1.5,1.5 0 0 1 7.5,5 1.5,1.5 0 0 1 6,3.5 1.5,1.5 0 0 1 7.5,2 Z M 7,10 H 7.5 8 V 14 H 7 Z"/>
 <path style="fill:currentColor" class="ColorScheme-Text" d="m 13,8.9999995 c -1.108,0 -2,0.911 -2,2.0310005 l 0,0.969 -1,0 0,4 6,0 0,-4 -1,0 0,-0.969 C 15,9.9109995 14.108,8.9999995 13,8.9999995 Z m 0,1 c 0.554,0 1,0.4420005 1,1.0000005 l 0,1 -2,0 0,-1 c 0,-0.558 0.446,-1.0000005 1,-1.0000005 z"/>
</svg>
